X: 183
T:Longthwaite
% Nottingham Music Database
S:Chris Dewhurst 1989, via Phil Rowe
M:6/8
K:Am
"Am"A3 a3|"Em"gee e2d|"C"c2g edc|"G"Bgd -dBG|"Am"A3 "F"a3|"C""e"gee " ""c"e2d|\
"Dm"c2e "E7"dcB| [1"Am"A3 -AcB:|
 [2"Am"A3 -"G7"A2|:B|"C"c2e -edc|"G"Bgd -dBG|"Am"A2c -cBA|"E"^GeB -BGE|
"F"F2A -AGF|"C"EGc edc|"Dm"B2d -"E7"dcB|"Am"A3 -"G7""Am"A2:|<end>
<start>
